communes/192.svg

<?xml version="1.0" encoding="UTF-8" standalone="no"?>
<svg
   xmlns:dc="http://purl.org/dc/elements/1.1/"
   xmlns:cc="http://creativecommons.org/ns#"
   xmlns:rdf="http://www.w3.org/1999/02/22-rdf-syntax-ns#"
   xmlns:svg="http://www.w3.org/2000/svg"
   xmlns="http://www.w3.org/2000/svg"
   xmlns:sodipodi="http://sodipodi.sourceforge.net/DTD/sodipodi-0.dtd"
   xmlns:inkscape="http://www.inkscape.org/namespaces/inkscape"
   version="1.0"
   width="240.46115"
   height="281.6629"
   id="svg2780"
   sodipodi:docname="192.svg">
  <metadata
     id="metadata32">
    <rdf:RDF>
      <cc:Work
         rdf:about="">
        <dc:format>image/svg+xml</dc:format>
        <dc:type
           rdf:resource="http://purl.org/dc/dcmitype/StillImage" />
      </cc:Work>
    </rdf:RDF>
  </metadata>
  <sodipodi:namedview
     pagecolor="#ffffff"
     bordercolor="#666666"
     borderopacity="1"
     objecttolerance="10"
     gridtolerance="10"
     guidetolerance="10"
     inkscape:pageopacity="0"
     inkscape:pageshadow="2"
     inkscape:window-width="640"
     inkscape:window-height="480"
     id="namedview30" />
  <defs
     id="defs2782" />
  <g
     transform="translate(-1.495685,-796.36305)"
     id="layer1">
    <path
       d="M 2.495685,797.36305 L 6.8313378,979.46905 C 9.9282245,1109.5449 233.52429,1109.5449 236.62119,979.46905 L 240.95684,797.36305 L 2.495685,797.36305 z "
       style="fill:#0a52a2;fill-opacity:1;fill-rule:evenodd;stroke:#000000;stroke-width:2;stroke-linecap:butt;stroke-miterlimit:4;stroke-dashoffset:0;stroke-opacity:1"
       id="path9539" />
    <path
       d="M 83.633719,152.30766 C 67.260647,154.38463 58.957191,153.20664 73.537846,143.2089"
       transform="translate(0,804.33069)"
       style="opacity:1;color:#000000;fill:#ffffff;fill-opacity:1;fill-rule:evenodd;stroke:#000000;stroke-width:1px;stroke-linecap:butt;stroke-linejoin:miter;marker:none;marker-start:none;marker-mid:none;marker-end:none;stroke-miterlimit:4;stroke-dasharray:none;stroke-dashoffset:0;stroke-opacity:1;visibility:visible;display:inline;overflow:visible;enable-background:accumulate"
       id="path2265" />
    <path
       d="M 36.765254,957.08376 C 39.938081,956.55496 50.911232,951.51703 60.575243,950.15704 C 70.239252,948.79704 70.283536,948.83563 75.597558,951.82005 C 81.045051,954.87942 81.156639,955.96355 83.422825,957.98784 C 85.589274,959.92303 114.66288,959.98293 117.04923,962.02859 C 119.21869,963.88831 122.74303,967.75981 128.41191,967.54194 C 132.57296,967.38202 133.56813,964.65522 133.73448,962.05544 C 130.47678,960.05242 127.04287,957.96824 124.8897,956.63834 C 127.04287,957.96824 130.47678,960.05242 133.7177,962.03709 C 136.95863,964.02175 137.52207,964.37678 141.84079,967.10814 C 146.13113,969.82155 152.86899,964.22503 151.37578,962.43413 C 145.39551,957.7765 137.18816,950.76955 132.01558,946.5941 C 137.18816,950.76955 145.02987,957.49174 151.37578,962.43413 C 157.72169,967.37652 166.47301,963.41632 167.01621,957.55934 C 157.53768,951.72289 148.51137,942.89543 140.16912,937.30238 C 148.51137,942.89543 157.53768,951.72289 167.01621,957.55934 C 181.47753,966.46396 182.5523,958.00248 180.93773,954.68335 C 179.29858,951.31369 159.93174,935.60331 157.45079,931.73753 C 155.01994,927.94982 148.54321,920.96088 138.16238,910.62938 C 127.71904,900.23567 128.00874,894.46284 110.19096,894.92147 C 92.375954,895.38003 74.678871,905.34965 72.006731,906.75919 C 69.403678,908.13229 68.166097,908.27946 63.961919,908.21219 C 59.751233,908.14482 46.905417,906.84266 40.383495,905.78505"
       style="color:#000000;fill:#ffffff;fill-opacity:1;fill-rule:evenodd;stroke:#000000;stroke-width:1px;stroke-linecap:butt;stroke-linejoin:round;marker:none;marker-start:none;marker-mid:none;marker-end:none;stroke-miterlimit:4;stroke-dashoffset:0;stroke-opacity:1;visibility:visible;display:inline;overflow:visible;enable-background:accumulate"
       id="path3201" />
    <path
       d="M 209.64518,907.16496 C 198.04109,906.89309 188.28004,908.49874 181.54212,910.16885 C 174.92156,911.80988 176.44989,908.67133 172.6786,906.15897 C 168.99319,903.70383 166.37541,901.89463 161.88652,901.14312 C 157.41629,900.39473 153.5463,899.84141 146.07857,897.06022 C 138.6508,894.29392 135.54237,895.32823 131.49564,897.68343 C 127.50417,900.00646 122.61,902.20176 119.38696,902.39869 C 116.16808,902.59537 112.71253,905.3736 112.10336,908.04111 C 114.46368,907.28011 118.98037,909.88541 113.69971,911.76779 C 118.98037,909.88541 114.46368,907.28011 112.10336,908.04111 C 109.71597,908.81083 104.09154,910.63071 103.95011,914.75916 C 104.22803,918.60167 107.49547,922.14305 114.7625,919.03971 C 122.06099,915.92294 125.06902,915.25227 124.85946,910.75296 C 125.41708,913.53492 126.35454,913.54017 128.44965,913.43498 C 130.54476,913.32979 133.88893,913.38512 138.16238,910.62938 C 148.54321,920.96088 155.01994,927.94982 157.45079,931.73753 C 159.93174,935.60331 179.29858,951.31369 180.93773,954.68335 C 185.19433,954.18916 193.19264,957.13691 210.51766,960.25292"
       style="color:#000000;fill:#ffffff;fill-opacity:1;fill-rule:evenodd;stroke:#000000;stroke-width:1px;stroke-linecap:butt;stroke-linejoin:round;marker:none;marker-start:none;marker-mid:none;marker-end:none;stroke-miterlimit:4;stroke-dashoffset:0;stroke-opacity:1;visibility:visible;display:inline;overflow:visible;enable-background:accumulate"
       id="path2279" />
    <path
       d="M 80.689655,953.88051 C 78.357106,955.90601 80.069307,958.00417 87.232294,962.57798 C 94.33582,967.11382 98.057622,962.09768 95.727171,959.53309 C 93.47317,957.0526 91.597514,955.76508 89.396305,953.95312 C 87.255534,952.19092 83.098619,951.78865 80.689655,953.88051 z "
       style="opacity:1;color:#000000;fill:#ffffff;fill-opacity:1;fill-rule:evenodd;stroke:#000000;stroke-width:1px;stroke-linecap:butt;stroke-linejoin:miter;marker:none;marker-start:none;marker-mid:none;marker-end:none;stroke-miterlimit:4;stroke-dasharray:none;stroke-dashoffset:0;stroke-opacity:1;visibility:visible;display:inline;overflow:visible;enable-background:accumulate"
       id="path2263" />
    <path
       d="M 93.168281,956.27991 C 90.800931,958.70712 92.538678,961.22139 99.808533,966.7023 C 107.01804,972.13771 110.79537,966.12675 108.43015,963.05353 C 106.14252,960.0811 104.23888,958.53824 102.00483,956.36692 C 99.83212,954.25523 95.613186,953.77318 93.168281,956.27991 z "
       style="opacity:1;color:#000000;fill:#ffffff;fill-opacity:1;fill-rule:evenodd;stroke:#000000;stroke-width:1px;stroke-linecap:butt;stroke-linejoin:miter;marker:none;marker-start:none;marker-mid:none;marker-end:none;stroke-miterlimit:4;stroke-dasharray:none;stroke-dashoffset:0;stroke-opacity:1;visibility:visible;display:inline;overflow:visible;enable-background:accumulate"
       id="path2261" />
    <path
       d="M 107.62684,155.07035 C 105.82895,157.00174 106.23236,158.23299 111.73264,163.09162 C 117.30258,168.01178 121.85628,162.11495 120.06001,159.66951 C 118.32266,157.30428 117.265,156.1731 114.81107,154.74287 C 112.40956,153.34319 109.48363,153.07568 107.62684,155.07035 z "
       transform="translate(0,804.33069)"
       style="opacity:1;color:#000000;fill:#ffffff;fill-opacity:1;fill-rule:evenodd;stroke:#000000;stroke-width:1px;stroke-linecap:butt;stroke-linejoin:miter;marker:none;marker-start:none;marker-mid:none;marker-end:none;stroke-miterlimit:4;stroke-dasharray:none;stroke-dashoffset:0;stroke-opacity:1;visibility:visible;display:inline;overflow:visible;enable-background:accumulate"
       id="path2259" />
    <path
       d="M 138.97407,160.7832 C 140.53502,160.81282 141.98249,160.50199 143.21184,159.5368"
       transform="translate(0,804.33069)"
       style="opacity:1;color:#000000;fill:none;fill-opacity:0.75;fill-rule:evenodd;stroke:#000000;stroke-width:1px;stroke-linecap:round;stroke-linejoin:miter;marker:none;marker-start:none;marker-mid:none;marker-end:none;stroke-miterlimit:4;stroke-dasharray:none;stroke-dashoffset:0;stroke-opacity:1;visibility:visible;display:inline;overflow:visible;enable-background:accumulate"
       id="path2267" />
    <path
       d="M 145.08145,152.80622 C 147.4492,152.8643 148.73436,152.70586 149.44386,152.43229"
       transform="translate(0,804.33069)"
       style="opacity:1;color:#000000;fill:none;fill-opacity:0.75;fill-rule:evenodd;stroke:#000000;stroke-width:1px;stroke-linecap:round;stroke-linejoin:miter;marker:none;marker-start:none;marker-mid:none;marker-end:none;stroke-miterlimit:4;stroke-dasharray:none;stroke-dashoffset:0;stroke-opacity:1;visibility:visible;display:inline;overflow:visible;enable-background:accumulate"
       id="path2269" />
    <path
       d="M 153.43235,143.2089 C 156.23249,143.12581 157.35872,143.04271 158.54261,142.95962"
       transform="translate(0,804.33069)"
       style="opacity:1;color:#000000;fill:none;fill-opacity:0.75;fill-rule:evenodd;stroke:#000000;stroke-width:1px;stroke-linecap:round;stroke-linejoin:miter;marker:none;marker-start:none;marker-mid:none;marker-end:none;stroke-miterlimit:4;stroke-dasharray:none;stroke-dashoffset:0;stroke-opacity:1;visibility:visible;display:inline;overflow:visible;enable-background:accumulate"
       id="path2271" />
    <path
       d="M 170.27091,154.96995 C 172.32204,154.63415 174.0632,153.68041 175.11979,152.68158"
       transform="translate(0,804.33069)"
       style="opacity:1;color:#000000;fill:none;fill-opacity:0.75;fill-rule:evenodd;stroke:#000000;stroke-width:1px;stroke-linecap:round;stroke-linejoin:miter;marker:none;marker-start:none;marker-mid:none;marker-end:none;stroke-miterlimit:4;stroke-dasharray:none;stroke-dashoffset:0;stroke-opacity:1;visibility:visible;display:inline;overflow:visible;enable-background:accumulate"
       id="path2273" />
    <path
       d="M 179.23292,148.31916 C 180.30427,147.13811 181.46621,146.13824 182.22429,144.33067"
       transform="translate(0,804.33069)"
       style="opacity:1;color:#000000;fill:none;fill-opacity:0.75;fill-rule:evenodd;stroke:#000000;stroke-width:1px;stroke-linecap:round;stroke-linejoin:miter;marker:none;marker-start:none;marker-mid:none;marker-end:none;stroke-miterlimit:4;stroke-dasharray:none;stroke-dashoffset:0;stroke-opacity:1;visibility:visible;display:inline;overflow:visible;enable-background:accumulate"
       id="path2275" />
    <path
       d="M 158.79189,128.87526 C 162.97815,128.40827 169.22409,130.00097 170.75737,126.88101"
       transform="translate(0,804.33069)"
       style="opacity:1;color:#000000;fill:none;fill-opacity:0.75;fill-rule:evenodd;stroke:#000000;stroke-width:1px;stroke-linecap:round;stroke-linejoin:miter;marker:none;marker-start:none;marker-mid:none;marker-end:none;stroke-miterlimit:4;stroke-dasharray:none;stroke-dashoffset:0;stroke-opacity:1;visibility:visible;display:inline;overflow:visible;enable-background:accumulate"
       id="path2277" />
    <path
       d="M 1.75,32.34375 L 5.34375,183.09375 C 5.7464725,200.00895 9.8907358,214.73414 16.78125,227.25 C 37.103218,215.83662 35.755446,193.79678 27.46875,188.25 C 57.849041,160.17928 58.307009,100.21945 23.625,80.375 C 39.522228,63.631088 25.29952,39.38056 1.75,32.34375 z "
       transform="translate(1.495685,796.36305)"
       style="fill:#ffffff;fill-opacity:1;fill-rule:evenodd;stroke:#000000;stroke-width:1px;stroke-linecap:butt;stroke-linejoin:round;stroke-opacity:1"
       id="path11541" />
    <path
       d="M 14.458289,78.249741 C 25.43294,65.341171 21.733507,46.088946 2.152567,39.998188"
       transform="translate(1.495685,796.36305)"
       style="opacity:1;color:#000000;fill:none;fill-opacity:0.75;fill-rule:evenodd;stroke:#000000;stroke-width:1px;stroke-linecap:round;stroke-linejoin:miter;marker:none;marker-start:none;marker-mid:none;marker-end:none;stroke-miterlimit:4;stroke-dasharray:none;stroke-dashoffset:0;stroke-opacity:1;visibility:visible;display:inline;overflow:visible;enable-background:accumulate"
       id="path11543" />
    <path
       d="M 33.652912,131.84512 C 34.468164,153.34652 26.004808,170.46635 5.4599366,181.88102"
       transform="translate(1.495685,796.36305)"
       style="opacity:1;color:#000000;fill:none;fill-opacity:0.75;fill-rule:evenodd;stroke:#000000;stroke-width:1px;stroke-linecap:round;stroke-linejoin:miter;marker:none;marker-start:none;marker-mid:none;marker-end:none;stroke-miterlimit:4;stroke-dasharray:none;stroke-dashoffset:0;stroke-opacity:1;visibility:visible;display:inline;overflow:visible;enable-background:accumulate"
       id="path11545" />
    <path
       d="M 30.910824,96.447241 C 47.00164,114.97712 48.388975,151.45521 26.423769,177.46351"
       transform="translate(1.495685,796.36305)"
       style="opacity:1;color:#000000;fill:none;fill-opacity:0.75;fill-rule:evenodd;stroke:#000000;stroke-width:1px;stroke-linecap:round;stroke-linejoin:miter;marker:none;marker-start:none;marker-mid:none;marker-end:none;stroke-miterlimit:4;stroke-dasharray:none;stroke-dashoffset:0;stroke-opacity:1;visibility:visible;display:inline;overflow:visible;enable-background:accumulate"
       id="path11547" />
    <path
       d="M 15.335331,217.14875 C 20.312452,209.61421 22.401563,201.55457 22.209789,193.08023"
       transform="translate(1.495685,796.36305)"
       style="opacity:1;color:#000000;fill:none;fill-opacity:0.75;fill-rule:evenodd;stroke:#000000;stroke-width:1px;stroke-linecap:round;stroke-linejoin:miter;marker:none;marker-start:none;marker-mid:none;marker-end:none;stroke-miterlimit:4;stroke-dasharray:none;stroke-dashoffset:0;stroke-opacity:1;visibility:visible;display:inline;overflow:visible;enable-background:accumulate"
       id="path11549" />
    <path
       d="M 238.75,30.8125 C 215.18841,37.841465 200.97322,62.095043 216.875,78.84375 C 182.19299,98.688202 182.65096,158.64803 213.03125,186.71875 C 204.66044,192.32184 203.3695,214.75348 224.34375,226.0625 C 230.84994,213.80529 234.7349,199.47892 235.125,183.09375 L 238.75,30.8125 z "
       transform="translate(1.495685,796.36305)"
       style="opacity:1;color:#000000;fill:#ffffff;fill-opacity:1;fill-rule:evenodd;stroke:#000000;stroke-width:1px;stroke-linecap:butt;stroke-linejoin:round;marker:none;marker-start:none;marker-mid:none;marker-end:none;stroke-miterlimit:4;stroke-dasharray:none;stroke-dashoffset:0;stroke-opacity:1;visibility:visible;display:inline;overflow:visible;enable-background:accumulate"
       id="path11551" />
    <path
       d="M 238.65696,33.929597 C 220.38038,43.651859 212.16713,65.242052 226.25834,80.08377 C 188.83424,113.88795 196.03141,157.16479 220.42897,186.7312 C 211.53997,192.68115 208.51274,207.35275 222.84661,217.43715"
       transform="translate(1.495685,796.36305)"
       style="fill:none;fill-opacity:0.75;fill-rule:evenodd;stroke:#000000;stroke-width:1px;stroke-linecap:round;stroke-linejoin:round;stroke-opacity:1"
       id="path11570" />
    <path
       d="M 226.09772,210.79676 C 221.21906,206.58697 220.92979,199.39855 221.36138,194.07735"
       transform="translate(1.495685,796.36305)"
       style="opacity:1;color:#000000;fill:none;fill-opacity:0.75;fill-rule:evenodd;stroke:#000000;stroke-width:1px;stroke-linecap:round;stroke-linejoin:miter;marker:none;marker-start:none;marker-mid:none;marker-end:none;stroke-miterlimit:4;stroke-dasharray:none;stroke-dashoffset:0;stroke-opacity:1;visibility:visible;display:inline;overflow:visible;enable-background:accumulate"
       id="path11555" />
    <path
       d="M 228.83981,173.47502 C 218.8207,163.4743 215.579,151.90957 214.13224,139.93062"
       transform="translate(1.495685,796.36305)"
       style="opacity:1;color:#000000;fill:none;fill-opacity:0.75;fill-rule:evenodd;stroke:#000000;stroke-width:1px;stroke-linecap:round;stroke-linejoin:miter;marker:none;marker-start:none;marker-mid:none;marker-end:none;stroke-miterlimit:4;stroke-dasharray:none;stroke-dashoffset:0;stroke-opacity:1;visibility:visible;display:inline;overflow:visible;enable-background:accumulate"
       id="path11557" />
    <path
       d="M 217.87145,173.97358 C 202.93008,147.80072 205.84133,126.13419 209.64518,107.16632"
       transform="translate(1.495685,796.36305)"
       style="opacity:1;color:#000000;fill:none;fill-opacity:0.75;fill-rule:evenodd;stroke:#000000;stroke-width:1px;stroke-linecap:round;stroke-linejoin:miter;marker:none;marker-start:none;marker-mid:none;marker-end:none;stroke-miterlimit:4;stroke-dasharray:none;stroke-dashoffset:0;stroke-opacity:1;visibility:visible;display:inline;overflow:visible;enable-background:accumulate"
       id="path11559" />
    <path
       d="M 21.06879,1017.7496 C 24.550226,1014.2035 30.37855,1003.4018 29.438933,996.9217"
       style="opacity:1;color:#000000;fill:none;fill-opacity:0.75;fill-rule:evenodd;stroke:#000000;stroke-width:1px;stroke-linecap:round;stroke-linejoin:miter;marker:none;marker-start:none;marker-mid:none;marker-end:none;stroke-miterlimit:4;stroke-dasharray:none;stroke-dashoffset:0;stroke-opacity:1;visibility:visible;display:inline;overflow:visible;enable-background:accumulate"
       id="path14491" />
    <path
       d="M 2.495685,797.36305 L 6.8313378,979.46905 C 9.9282245,1109.5449 233.52429,1109.5449 236.62119,979.46905 L 240.95684,797.36305 L 2.495685,797.36305 z "
       style="fill:none;fill-opacity:1;fill-rule:evenodd;stroke:#000000;stroke-width:2;stroke-linecap:butt;stroke-miterlimit:4;stroke-dashoffset:0;stroke-opacity:1"
       id="path15505" />
  </g>
</svg>

<?xml version="1.0" encoding="UTF-8"?>
<svg version="1.0" viewBox="0 0 240.46 281.66" xmlns="http://www.w3.org/2000/svg" xmlns:cc="http://creativecommons.org/ns#" xmlns:dc="http://purl.org/dc/elements/1.1/" xmlns:rdf="http://www.w3.org/1999/02/22-rdf-syntax-ns#">
<metadata>
<rdf:RDF>
<cc:Work rdf:about="">
<dc:format>image/svg+xml</dc:format>
<dc:type rdf:resource="http://purl.org/dc/dcmitype/StillImage"/>
</cc:Work>
</rdf:RDF>
</metadata>
<g transform="translate(-1.4957 -796.36)" stroke="#000">
<path d="m2.4957 797.36 4.3357 182.11c3.0969 130.08 226.69 130.08 229.79 0l4.3356-182.11h-238.46z" fill="#0a52a2" fill-rule="evenodd" stroke-width="2"/>
<path transform="translate(0 804.33)" d="m83.634 152.31c-16.373 2.077-24.677 0.89898-10.096-9.0988" color="#000000" fill="#fff" fill-rule="evenodd" stroke-width="1px"/>
<path d="m36.765 957.08c3.1728-0.5288 14.146-5.5667 23.81-6.9267 9.664-1.36 9.7083-1.3214 15.022 1.663 5.4475 3.0594 5.5591 4.1435 7.8253 6.1678 2.1664 1.9352 31.24 1.9951 33.626 4.0408 2.1695 1.8597 5.6938 5.7312 11.363 5.5134 4.161-0.15992 5.1562-2.8867 5.3226-5.4865-3.2577-2.003-6.6916-4.0872-8.8448-5.4171 2.1532 1.3299 5.5871 3.4141 8.828 5.3988 3.2409 1.9847 3.8044 2.3397 8.1231 5.071 4.2903 2.7134 11.028-2.8831 9.535-4.674-5.9803-4.6576-14.188-11.665-19.36-15.84 5.1726 4.1754 13.014 10.898 19.36 15.84s15.097 0.98219 15.64-4.8748c-9.4785-5.8364-18.505-14.664-26.847-20.257 8.3422 5.593 17.369 14.421 26.847 20.257 14.461 8.9046 15.536 0.44314 13.922-2.876-1.6392-3.3697-21.006-19.08-23.487-22.946-2.4308-3.7877-8.9076-10.777-19.288-21.108-10.443-10.394-10.154-16.167-27.971-15.708-17.815 0.45856-35.512 10.428-38.184 11.838-2.6031 1.3731-3.8406 1.5203-8.0448 1.453-4.2107-0.06737-17.057-1.3695-23.578-2.4271" color="#000000" fill="#fff" fill-rule="evenodd" stroke-linejoin="round" stroke-width="1px"/>
<path d="m209.65 907.16c-11.604-0.27187-21.365 1.3338-28.103 3.0039-6.6206 1.641-5.0922-1.4975-8.8635-4.0099-3.6854-2.4551-6.3032-4.2643-10.792-5.0158-4.4702-0.74839-8.3402-1.3017-15.808-4.0829-7.4278-2.7663-10.536-1.732-14.583 0.62321-3.9915 2.323-8.8856 4.5183-12.109 4.7153-3.2189 0.19668-6.6744 2.9749-7.2836 5.6424 2.3603-0.761 6.877 1.8443 1.5964 3.7267 5.2807-1.8824 0.76397-4.4877-1.5964-3.7267-2.3874 0.76972-8.0118 2.5896-8.1532 6.718 0.27792 3.8425 3.5454 7.3839 10.812 4.2806 7.2985-3.1168 10.307-3.7874 10.097-8.2868 0.55762 2.782 1.4951 2.7872 3.5902 2.682s5.4393-0.04986 9.7127-2.8056c10.381 10.332 16.858 17.32 19.288 21.108 2.481 3.8658 21.848 19.576 23.487 22.946 4.2566-0.49419 12.255 2.4536 29.58 5.5696" color="#000000" fill="#fff" fill-rule="evenodd" stroke-linejoin="round" stroke-width="1px"/>
<path d="m80.69 953.88c-2.3325 2.0255-0.62035 4.1237 6.5426 8.6975 7.1035 4.5358 10.825-0.4803 8.4949-3.0449-2.254-2.4805-4.1297-3.768-6.3309-5.58-2.1408-1.7622-6.2977-2.1645-8.7066-0.07261z" color="#000000" fill="#fff" fill-rule="evenodd" stroke-width="1px"/>
<path d="m93.168 956.28c-2.3674 2.4272-0.6296 4.9415 6.6403 10.422 7.2095 5.4354 10.987-0.57555 8.6216-3.6488-2.2876-2.9724-4.1913-4.5153-6.4253-6.6866-2.1727-2.1117-6.3916-2.5937-8.8365-0.08701z" color="#000000" fill="#fff" fill-rule="evenodd" stroke-width="1px"/>
<path transform="translate(0 804.33)" d="m107.63 155.07c-1.7979 1.9314-1.3945 3.1626 4.1058 8.0213 5.5699 4.9202 10.124-0.97667 8.3274-3.4221-1.7374-2.3652-2.795-3.4964-5.2489-4.9266-2.4015-1.3997-5.3274-1.6672-7.1842 0.32748z" color="#000000" fill="#fff" fill-rule="evenodd" stroke-width="1px"/>
<path transform="translate(0 804.33)" d="m138.97 160.78c1.561 0.02962 3.0084-0.28121 4.2378-1.2464" color="#000000" fill="none" stroke-linecap="round" stroke-width="1px"/>
<path transform="translate(0 804.33)" d="m145.08 152.81c2.3678 0.05808 3.6529-0.10036 4.3624-0.37393" color="#000000" fill="none" stroke-linecap="round" stroke-width="1px"/>
<path transform="translate(0 804.33)" d="m153.43 143.21c2.8001-0.08309 3.9264-0.16619 5.1103-0.24928" color="#000000" fill="none" stroke-linecap="round" stroke-width="1px"/>
<path transform="translate(0 804.33)" d="m170.27 154.97c2.0511-0.3358 3.7923-1.2895 4.8489-2.2884" color="#000000" fill="none" stroke-linecap="round" stroke-width="1px"/>
<path transform="translate(0 804.33)" d="m179.23 148.32c1.0714-1.181 2.2333-2.1809 2.9914-3.9885" color="#000000" fill="none" stroke-linecap="round" stroke-width="1px"/>
<path transform="translate(0 804.33)" d="m158.79 128.88c4.1863-0.46699 10.432 1.1257 11.965-1.9942" color="#000000" fill="none" stroke-linecap="round" stroke-width="1px"/>
<path transform="translate(1.4957 796.36)" d="m1.75 32.344 3.5938 150.75c0.40272 16.915 4.547 31.64 11.438 44.156 20.322-11.413 18.974-33.453 10.688-39 30.38-28.071 30.838-88.031-3.8438-107.88 15.897-16.744 1.6745-40.994-21.875-48.031z" fill="#fff" fill-rule="evenodd" stroke-linejoin="round" stroke-width="1px"/>
<path transform="translate(1.4957 796.36)" d="m14.458 78.25c10.975-12.909 7.2752-32.161-12.306-38.252" color="#000000" fill="none" stroke-linecap="round" stroke-width="1px"/>
<path transform="translate(1.4957 796.36)" d="m33.653 131.85c0.81525 21.501-7.6481 38.621-28.193 50.036" color="#000000" fill="none" stroke-linecap="round" stroke-width="1px"/>
<path transform="translate(1.4957 796.36)" d="m30.911 96.447c16.091 18.53 17.478 55.008-4.4871 81.016" color="#000000" fill="none" stroke-linecap="round" stroke-width="1px"/>
<path transform="translate(1.4957 796.36)" d="m15.335 217.15c4.9771-7.5345 7.0662-15.594 6.8745-24.069" color="#000000" fill="none" stroke-linecap="round" stroke-width="1px"/>
<path transform="translate(1.4957 796.36)" d="m238.75 30.812c-23.562 7.029-37.777 31.283-21.875 48.031-34.682 19.844-34.224 79.804-3.8438 107.88-8.3708 5.6031-9.6618 28.035 11.312 39.344 6.5062-12.257 10.391-26.584 10.781-42.969l3.625-152.28z" color="#000000" fill="#fff" fill-rule="evenodd" stroke-linejoin="round" stroke-width="1px"/>
<path transform="translate(1.4957 796.36)" d="m238.66 33.93c-18.277 9.7223-26.49 31.312-12.399 46.154-37.424 33.804-30.227 77.081-5.8294 106.65-8.889 5.95-11.916 20.622 2.4176 30.706" fill="none" stroke-linecap="round" stroke-linejoin="round" stroke-width="1px"/>
<path transform="translate(1.4957 796.36)" d="m226.1 210.8c-4.8787-4.2098-5.1679-11.398-4.7363-16.719" color="#000000" fill="none" stroke-linecap="round" stroke-width="1px"/>
<path transform="translate(1.4957 796.36)" d="m228.84 173.48c-10.019-10.001-13.261-21.565-14.708-33.544" color="#000000" fill="none" stroke-linecap="round" stroke-width="1px"/>
<path transform="translate(1.4957 796.36)" d="m217.87 173.97c-14.941-26.173-12.03-47.839-8.2263-66.807" color="#000000" fill="none" stroke-linecap="round" stroke-width="1px"/>
<path d="m21.069 1017.7c3.4814-3.5461 9.3098-14.348 8.3701-20.828" color="#000000" fill="none" stroke-linecap="round" stroke-width="1px"/>
<path d="m2.4957 797.36 4.3357 182.11c3.0969 130.08 226.69 130.08 229.79 0l4.3356-182.11h-238.46z" fill="none" stroke-width="2"/>
</g>
</svg>
